icons/Mailicons.svg

<svg width="16" height="16" viewBox="0 0 16 16" fill="currentColor" xmlns="http://www.w3.org/2000/svg">
<g clip-path="url(#clip0_4_583)">
<mask id="path-1-outside-1_4_583" maskUnits="userSpaceOnUse" x="-1.00012" y="1.6" width="18" height="12" fill="black">
<rect fill="white" x="-1.00012" y="1.6" width="18" height="12"/>
<path fill-rule="evenodd" clip-rule="evenodd" d="M14.8085 2.6H1.19137C0.510519 2.6 -0.00012207 3.12033 -0.00012207 3.8141V12.0526C-0.00012207 12.703 0.510519 13.2667 1.19137 13.2667H14.8085C15.4468 13.2667 16 12.7464 16 12.0526V3.8141C15.9574 3.12033 15.4468 2.6 14.8085 2.6ZM14.6383 3.2504L7.99993 8.15016L1.27649 3.2504H14.6383ZM14.8085 12.5729C15.0638 12.5729 15.3191 12.3561 15.3191 12.0526V3.81406C15.3191 3.72734 15.3191 3.64062 15.2766 3.59726L8.21269 8.84391C8.08503 8.93063 7.95737 8.93063 7.82971 8.84391L0.723284 3.64062C0.680731 3.68398 0.680731 3.7707 0.680731 3.81406V12.0526C0.680731 12.3128 0.893498 12.5729 1.19137 12.5729H14.8085Z"/>
</mask>
<path fill-rule="evenodd" clip-rule="evenodd" d="M14.8085 2.6H1.19137C0.510519 2.6 -0.00012207 3.12033 -0.00012207 3.8141V12.0526C-0.00012207 12.703 0.510519 13.2667 1.19137 13.2667H14.8085C15.4468 13.2667 16 12.7464 16 12.0526V3.8141C15.9574 3.12033 15.4468 2.6 14.8085 2.6ZM14.6383 3.2504L7.99993 8.15016L1.27649 3.2504H14.6383ZM14.8085 12.5729C15.0638 12.5729 15.3191 12.3561 15.3191 12.0526V3.81406C15.3191 3.72734 15.3191 3.64062 15.2766 3.59726L8.21269 8.84391C8.08503 8.93063 7.95737 8.93063 7.82971 8.84391L0.723284 3.64062C0.680731 3.68398 0.680731 3.7707 0.680731 3.81406V12.0526C0.680731 12.3128 0.893498 12.5729 1.19137 12.5729H14.8085Z" fill="#3D3D3D"/>
<path d="M16 3.8141H16.1002L16.0998 3.80798L16 3.8141ZM7.99993 8.15016L7.94104 8.23097L8.00031 8.27417L8.05932 8.23061L7.99993 8.15016ZM14.6383 3.2504L14.6977 3.33085L14.9421 3.1504H14.6383V3.2504ZM1.27649 3.2504V3.1504H0.969474L1.21759 3.33121L1.27649 3.2504ZM15.2766 3.59726L15.3479 3.52722L15.2869 3.46502L15.2169 3.51698L15.2766 3.59726ZM8.21269 8.84391L8.26894 8.9267L8.27232 8.92418L8.21269 8.84391ZM7.82971 8.84391L7.7706 8.92464L7.77352 8.92662L7.82971 8.84391ZM0.723284 3.64062L0.782361 3.55994L0.712532 3.50881L0.651912 3.57058L0.723284 3.64062ZM1.19137 2.7H14.8085V2.5H1.19137V2.7ZM0.0998779 3.8141C0.0998779 3.17378 0.567511 2.7 1.19137 2.7V2.5C0.453528 2.5 -0.100122 3.06688 -0.100122 3.8141H0.0998779ZM0.0998779 12.0526V3.8141H-0.100122V12.0526H0.0998779ZM1.19137 13.1667C0.569802 13.1667 0.0998779 12.652 0.0998779 12.0526H-0.100122C-0.100122 12.7541 0.451237 13.3667 1.19137 13.3667V13.1667ZM14.8085 13.1667H1.19137V13.3667H14.8085V13.1667ZM15.9 12.0526C15.9 12.6906 15.3921 13.1667 14.8085 13.1667V13.3667C15.5015 13.3667 16.1 12.8022 16.1 12.0526H15.9ZM15.9 3.8141V12.0526H16.1V3.8141H15.9ZM14.8085 2.7C15.3868 2.7 15.8604 3.17173 15.9002 3.82022L16.0998 3.80798C16.0545 3.06892 15.5068 2.5 14.8085 2.5V2.7ZM8.05932 8.23061L14.6977 3.33085L14.5789 3.16994L7.94055 8.0697L8.05932 8.23061ZM1.21759 3.33121L7.94104 8.23097L8.05883 8.06934L1.33538 3.16958L1.21759 3.33121ZM14.6383 3.1504H1.27649V3.3504H14.6383V3.1504ZM15.2191 12.0526C15.2191 12.2973 15.0122 12.4729 14.8085 12.4729V12.6729C15.1154 12.6729 15.4191 12.4149 15.4191 12.0526H15.2191ZM15.2191 3.81406V12.0526H15.4191V3.81406H15.2191ZM15.2052 3.6673C15.2038 3.66586 15.2104 3.67217 15.2148 3.70329C15.2189 3.73297 15.2191 3.76889 15.2191 3.81406H15.4191C15.4191 3.77252 15.4193 3.72172 15.4128 3.67552C15.4066 3.63076 15.3919 3.57202 15.3479 3.52722L15.2052 3.6673ZM8.27232 8.92418L15.3362 3.67754L15.2169 3.51698L8.15307 8.76363L8.27232 8.92418ZM7.77352 8.92662C7.85041 8.97886 7.93347 9.00895 8.0212 9.00895C8.10894 9.00895 8.19199 8.97886 8.26889 8.92662L8.1565 8.76119C8.10573 8.79567 8.06113 8.80895 8.0212 8.80895C7.98128 8.80895 7.93667 8.79567 7.8859 8.76119L7.77352 8.92662ZM0.664208 3.72131L7.77064 8.92459L7.88879 8.76322L0.782361 3.55994L0.664208 3.72131ZM0.780731 3.81406C0.780731 3.79182 0.780903 3.76693 0.784739 3.74348C0.788968 3.71763 0.79519 3.71012 0.794656 3.71066L0.651912 3.57058C0.608826 3.61448 0.59377 3.67202 0.587361 3.7112C0.580559 3.75279 0.580731 3.79295 0.580731 3.81406H0.780731ZM0.780731 12.0526V3.81406H0.580731V12.0526H0.780731ZM1.19137 12.4729C0.955743 12.4729 0.780731 12.2648 0.780731 12.0526H0.580731C0.580731 12.3607 0.831253 12.6729 1.19137 12.6729V12.4729ZM14.8085 12.4729H1.19137V12.6729H14.8085V12.4729Z" fill="#3D3D3D" mask="url(#path-1-outside-1_4_583)"/>
</g>
<defs>
<clipPath id="clip0_4_583">
<rect width="16" height="16" fill="white"/>
</clipPath>
</defs>
</svg>

<svg xmlns="http://www.w3.org/2000/svg" width="16" height="16" fill="currentColor" class="si si-Mailicons" viewBox="0 0 16 16">
  <g clip-path="url(#a)">
    <mask id="b" width="18" height="12" x="-1" y="1.6" maskUnits="userSpaceOnUse">
      <path d="M-1 1.6h18v12H-1z"/>
      <path fill-rule="evenodd" d="M14.809 2.6H1.19C.511 2.6 0 3.12 0 3.814v8.239c0 .65.51 1.214 1.191 1.214H14.81A1.2 1.2 0 0 0 16 12.053V3.814c-.043-.694-.553-1.214-1.191-1.214m-.17.65-6.64 4.9-6.723-4.9zm.17 9.323c.255 0 .51-.217.51-.52V3.814c0-.087 0-.173-.042-.217L8.213 8.844a.314.314 0 0 1-.383 0L.723 3.64c-.042.043-.042.13-.042.173v8.239c0 .26.212.52.51.52z"/>
    </mask>
    <path fill-rule="evenodd" d="M14.809 2.6H1.19C.511 2.6 0 3.12 0 3.814v8.239c0 .65.51 1.214 1.191 1.214H14.81A1.2 1.2 0 0 0 16 12.053V3.814c-.043-.694-.553-1.214-1.191-1.214m-.17.65-6.64 4.9-6.723-4.9zm.17 9.323c.255 0 .51-.217.51-.52V3.814c0-.087 0-.173-.042-.217L8.213 8.844a.314.314 0 0 1-.383 0L.723 3.64c-.042.043-.042.13-.042.173v8.239c0 .26.212.52.51.52z"/>
    <path d="M16 3.814h.1v-.006zM8 8.15l-.059.081.06.043.058-.043zm6.638-4.9.06.08.244-.18h-.304zm-13.362 0v-.1H.97l.249.181zm14 .347.072-.07-.061-.062-.07.052zM8.214 8.844l.056.083.003-.003zm-.383 0-.06.08.004.003zM.723 3.64l.06-.081-.07-.051-.061.062zm.468-.941H14.81v-.2H1.19zM.1 3.814C.1 3.174.568 2.7 1.19 2.7v-.2C.454 2.5-.1 3.067-.1 3.814zm0 8.239V3.814h-.2v8.239zm1.091 1.114C.57 13.167.1 12.652.1 12.053h-.2c0 .701.551 1.314 1.291 1.314zm13.618 0H1.19v.2h13.62zm1.091-1.114a1.1 1.1 0 0 1-1.091 1.114v.2a1.3 1.3 0 0 0 1.291-1.314zm0-8.239v8.239h.2V3.814zM14.809 2.7c.578 0 1.051.472 1.091 1.12l.2-.012c-.046-.74-.593-1.308-1.292-1.308zm-6.75 5.53 6.639-4.9-.12-.16-6.637 4.9zM1.218 3.332l6.723 4.9.118-.162-6.724-4.9zm13.42-.18H1.276v.2h13.362zm.581 8.902c0 .244-.207.42-.41.42v.2c.306 0 .61-.258.61-.62zm0-8.239v8.239h.2v-8.24zm-.014-.147c-.001-.001.005.005.01.036q.005.044.004.111h.2c0-.041 0-.092-.006-.138a.26.26 0 0 0-.065-.149zM8.272 8.924l7.064-5.246-.12-.161-7.063 5.247zm-.498.003c.076.052.16.082.247.082a.44.44 0 0 0 .248-.082l-.113-.166a.24.24 0 0 1-.135.048.24.24 0 0 1-.135-.048zM.664 3.72l7.107 5.204.118-.162L.782 3.56zm.117.093q-.001-.034.004-.07c.004-.026.01-.034.01-.033l-.143-.14a.26.26 0 0 0-.065.14c-.006.042-.006.082-.006.103zm0 8.239V3.814h-.2v8.239zm.41.42a.423.423 0 0 1-.41-.42h-.2c0 .308.25.62.61.62zm13.618 0H1.19v.2h13.62z" mask="url(#b)"/>
  </g>
  <defs>
    <clipPath id="a">
      <path d="M0 0h16v16H0z"/>
    </clipPath>
  </defs>
</svg>
